!!!OTL: Mir mussen an d' Mille goen, S. 41
!!!id: R0052
**kern
*clefG2
*k[f#]
*G:
{8g
=1
8g
2.g
=2
4a
4g
4a
=3
2b
4g
=4
2.d}
=5
{2.b
=6
4g
4a
4b
=7
2cc
4b
=8
2.a}
=9
{4d
4e
4f#
=10
4.g
8g
4g
=11
2a
4a
=12
2.b}
=13
{2dd
4cc
=14
2b
4g
=15
4a
4cc
4b
=16
2.g}
==
*-
!!!minrhy: 8
!!!meters: 3/4 ]  ZZ[4
!!!cut: Mir mussen an d' Mille goen, S. 41
!!!reg: Luxemburg
!!!trd: D'Fraen um Kanddaaf an der aler Zeit, Luxemburg 1929
!!!rhy1:   X__.  X_X_X_  X__X_  X__.   (x2)
!!!rhy2: X__.  X_X_X_  X__X_  X__.
!!!key: R0052  08  G 3/4 ]  ZZ[4
!!!mod: HEPTATONIK IONISCH]  AMBITUS[8
!!!kad: -5231
!!!akz: 123-5_3142_-5123_5321_
!!!fot: 'a__b__c__d__
!!!for: 'a__a__b__c__
!!!fok: '^d_Sd_/__Sd_
!! PHRAS[VOLLTAKTIG]
!!!fkt: ??, Walzer
!! RUDEN, J.M.:
!! PR[26] 2K[3] 2G[10] 3K[0] 3G[13] 4A[3] 4Ü[0] 5A[3] 6K[0] 6G[0]
!! 7K[0] 7G[0] 8A[0] MEHR[0] SI[32] ABS[31] SR[13] SP[19]
!! ST[13] 2k[3] 2g[29] 3k[0] 3g[3] 4d[3] 4ü[0] 5d[3] 6k[0] 6g[0]
!! 7k[0] 7g[0] 8d[0] mehr[0] si[42] dm[-10] sr[32] sp[10]
!! 1F[5] 2F[49] 3F[41] 4F[0] LF[0] 2P[5] 3P[0] 4P[0] TRI[0] DF[4] AB[37]
!! TF[0] U3K[0] U3[0] U4[0] U4Ü[0] U5[6] U6K[0] U6[0] U7K[0] U7[3]
!! N1[47] N2K[0] N2[28] N3K[0] N3[16] N4[0] N4Ü[0] N5[0] N6K[0] N6[0]
!!!n7k: 0] N7[0] O1[0] O2K[0] O2[0] O3K[0] O3[0] HÖ[0
